UI/Misc/SVG/trophy_outline_24px.svg

<svg width="24" height="24" viewBox="0 0 24 24" fill="none" xmlns="http://www.w3.org/2000/svg">
<path d="M20 5V11L20.89 10.55C21.2232 10.3844 21.5036 10.1292 21.6997 9.81295C21.8958 9.49674 21.9998 9.13208 22 8.76V5H20ZM6 10.87C6.00384 11.2173 6.09807 11.5577 6.27342 11.8575C6.44876 12.1573 6.69918 12.4063 7 12.58L11 15V20H9C8.73478 20 8.48043 20.1054 8.29289 20.2929C8.10536 20.4804 8 20.7348 8 21V22H16V21C16 20.7348 15.8946 20.4804 15.7071 20.2929C15.5196 20.1054 15.2652 20 15 20H13V15L17 12.58C17.3008 12.4063 17.5512 12.1573 17.7266 11.8575C17.9019 11.5577 17.9962 11.2173 18 10.87V2H6V10.87ZM8 4H16V10.87L12 13.27L8 10.87V4ZM2 8.76C2.0002 9.13208 2.10419 9.49674 2.30028 9.81295C2.49637 10.1292 2.77679 10.3844 3.11 10.55L4 11V5H2V8.76Z" fill="#0F1621"/>
</svg>

<svg xmlns="http://www.w3.org/2000/svg" width="24" height="24" viewBox="0 0 24 24"><rect width="24" height="24" style="fill:none"/><path d="M20,5v6l.89-.45A2,2,0,0,0,22,8.76V5ZM6,10.87a2,2,0,0,0,1,1.71L11,15v5H9a1,1,0,0,0-1,1v1h8V21a1,1,0,0,0-1-1H13V15l4-2.42a2,2,0,0,0,1-1.71V2H6ZM8,4h8v6.87l-4,2.4-4-2.4ZM2,8.76a2,2,0,0,0,1.11,1.79L4,11V5H2Z"/></svg>
